**kern	**kern	**dynam
*part1	*part1	*part1
*staff2	*staff1	*
*I"Piano	*	*
*clefF4	*clefG2	*
*k[f#]	*k[f#]	*
=1	=1	=1
8qBB/	.	mf
*	*^	*
(4.B	[2b^	8d#XL 8f#	.
.	.	8d# 8f#	.
.	.	8d# 8f#	.
16A#XLL	.	8d#J 8f#	.
16AnJJ	.	.	.
=	=	=	=
8GL	4b]	8eL 8g	.
16F#L	.	8e 8g	.
16EJJ	.	.	.
[4c^	[4cc^	8e 8f#	.
.	.	8eJ 8f#	.
=	=	=	=
8cL]	4cc]	8eL 8f#	.
16BL	.	8e 8f#	.
16AJJ	.	.	.
8BL	4b^	8d#X 8f#	.
8BBJ)	.	8d#J 8f#	.
=	=	=	=
(4E	2b^	8eL 8g	.
.	.	8e 8g	.
4EE)	.	8e 8g	.
.	.	8eJ 8g	.
=	=	=	=
8qBB/	.	.	f
(4.B^	(4.b^	8d#XL 8f#	.
.	.	8d# 8f#	.
.	.	8d# 8f#	.
16A#XLL	16a#XLL	8d#J 8f#	.
16AnJJ	16anJJ	.	.
=	=	=	=
8GL	8gL	8eL	.
16F#L	16f#L	16f#L	.
16EJJ	16eJJ	16eJJ	.
[4c	[4cc^	8eL 8f# 8a	.
.	.	8eJ 8f# 8a	.
=	=	=	=
8cL]	8ccL]	8eL 8f# 8a	.
16BL	16bL	8eJ 8f#	.
16AJJ	16aJJ	.	.
*	*v	*v	*
8BL)	8d#X'L) 8f# 8b	.
8BBB'J 8BB	8F#'J 8B 8d#	.
=	=	=
4EE' 4E	4G' 4B 4e	.
4EEE'^ 4EE	4E^<	.
==	==	==
*-	*-	*-
!!!system-decoration: {(s1,s2)}
!!!RDF**kern: < = below
